icons/group-2-line.svg

<svg viewBox="0 0 24 24" fill="currentColor" xmlns="http://www.w3.org/2000/svg"><path d="M9.55 11.5C8.30736 11.5 7.3 10.4926 7.3 9.25C7.3 8.00736 8.30736 7 9.55 7C10.7926 7 11.8 8.00736 11.8 9.25C11.8 10.4926 10.7926 11.5 9.55 11.5ZM10 19.748V16.4C10 15.9116 10.1442 15.4627 10.4041 15.0624C10.1087 15.0213 9.80681 15 9.5 15C7.93201 15 6.49369 15.5552 5.37091 16.4797C6.44909 18.0721 8.08593 19.2553 10 19.748ZM4.45286 14.66C5.86432 13.6168 7.61013 13 9.5 13C10.5435 13 11.5431 13.188 12.4667 13.5321C13.3447 13.1888 14.3924 13 15.5 13C17.1597 13 18.6849 13.4239 19.706 14.1563C19.8976 13.4703 20 12.7471 20 12C20 7.58172 16.4183 4 12 4C7.58172 4 4 7.58172 4 12C4 12.9325 4.15956 13.8278 4.45286 14.66ZM18.8794 16.0859C18.4862 15.5526 17.1708 15 15.5 15C13.4939 15 12 15.7967 12 16.4V20C14.9255 20 17.4843 18.4296 18.8794 16.0859ZM12 22C6.47715 22 2 17.5228 2 12C2 6.47715 6.47715 2 12 2C17.5228 2 22 6.47715 22 12C22 17.5228 17.5228 22 12 22ZM15.5 12.5C14.3954 12.5 13.5 11.6046 13.5 10.5C13.5 9.39543 14.3954 8.5 15.5 8.5C16.6046 8.5 17.5 9.39543 17.5 10.5C17.5 11.6046 16.6046 12.5 15.5 12.5Z"/></svg>

<svg xmlns="http://www.w3.org/2000/svg" viewBox="0 0 24 24">
    <g>
        <path fill="none" d="M0 0h24v24H0z"/>
        <path d="M9.55 11.5a2.25 2.25 0 1 1 0-4.5 2.25 2.25 0 0 1 0 4.5zm.45 8.248V16.4c0-.488.144-.937.404-1.338a6.473 6.473 0 0 0-5.033 1.417A8.012 8.012 0 0 0 10 19.749zM4.453 14.66A8.462 8.462 0 0 1 9.5 13c1.043 0 2.043.188 2.967.532.878-.343 1.925-.532 3.033-.532 1.66 0 3.185.424 4.206 1.156a8 8 0 1 0-15.253.504zm14.426 1.426C18.486 15.553 17.171 15 15.5 15c-2.006 0-3.5.797-3.5 1.4V20a7.996 7.996 0 0 0 6.88-3.914zM12 22C6.477 22 2 17.523 2 12S6.477 2 12 2s10 4.477 10 10-4.477 10-10 10zm3.5-9.5a2 2 0 1 1 0-4 2 2 0 0 1 0 4z"/>
    </g>
</svg>
